X: 15
T: No_10_Song_to_the_East_God.krn
N: Derived from No_10_Song_to_the_East_God.krn
%%abc-version 2.0
%%abcx-abcm2ps-target-version 5.9.1 (29 Sep 2008)
%%abc-creator hum2abc beta
%%abcx-conversion-date 2019/03/15 08:35:44
%%humdrum-veritas 3380164256
%%humdrum-veritas-data 2044513344
%%linebreak <none>
%%barnumbers 0
L: 1/8
M: 3/4
%%staves {1 2}
V: 1 clef=bass
V: 2 clef=bass
K: C
[V:1] [K:clef=bass][M:3/4]C3/G,/ G,3/G,/G,2 ||  
[V:2] [K:clef=bass][M:3/4]G,,G,, G,,G,, G,,G,, ||  
[V:1] [M:2/4]D,3z ||  
[V:2] [M:2/4]z4 ||  
[V:1] [M:3/4]G,3/G,/ G,3/A,/G,2 ||  
[V:2] [M:3/4]z6 ||  
[V:1] [M:2/4]E,3z | 
[V:2] [M:2/4]z4 | 
[V:1] G,G, G,E, | 
[V:2] z4 | 
[V:1] E,/C,3/ C,/ z/ E,/E,/ | 
[V:2] z4 | 
[V:1] E,3/F,/E,2 ||  
[V:2] z4 ||  
[V:1] [M:3/4]D,2z2D,2 | 
[V:2] [M:3/4]z6 | 
[V:1] C,4C,2 | 
[V:2] z6 | 
[V:1] D,4E,2 | 
[V:2] z6 | 
[V:1] (E,3G,)D,2 | 
[V:2] z6 | 
[V:1] C,2z2C,G,, | 
[V:2] z6 | 
[V:1] C,4C,C, | 
[V:2] z6 | 
[V:1] C,6 |]  
[V:2] z6 |]  



